X: 5697
T: Ca Beleño
R: jig
M: 6/8
K: Eminor
B2G|:~E3 EFG|A3 ABG|~E3 EFG|~F3 B2G|
~E3 EFG|A3 ABA|GBG F/G/AF|1 E3 ABG:|2 E3 G2A||
|:B2B BAG|Bdc B3|AA/A/A AGA|ABG AFD|
B2B BAG|Bdc B3|GBG FAF|1 E3 G2A:|2 E3||

